Themes/OneUI/assets/svg/video-call-squircle.svg

<svg width="21" height="21" viewBox="0 0 21 21" fill="none" xmlns="http://www.w3.org/2000/svg">
<g clip-path="url(#clip0_1_1116)">
<path d="M18.4869 2.51316C17.2171 1.31956 15.4836 0.642361 13.5707 0.389061C11.7439 0.146961 10.5 0.206561 10.5 0.206561C10.5 0.206561 9.25589 0.146961 7.42899 0.389061C5.51609 0.642361 3.78279 1.31956 2.51329 2.51316C1.31939 3.78286 0.642294 5.51626 0.388894 7.42916C0.146794 9.25586 0.206494 10.5 0.206494 10.5C0.206494 10.5 0.146794 11.744 0.388894 13.5709C0.642294 15.4836 1.31939 17.2172 2.51319 18.4868C3.78279 19.6806 5.51609 20.3577 7.42899 20.6112C9.25589 20.8532 10.5 20.7936 10.5 20.7936C10.5 20.7936 11.7439 20.8532 13.5707 20.6112C15.4836 20.3577 17.2171 19.6806 18.4866 18.4868C19.6807 17.2172 20.3577 15.4836 20.6111 13.5709C20.8531 11.744 20.7935 10.5 20.7935 10.5C20.7935 10.5 20.8531 9.25586 20.6111 7.42916C20.3577 5.51626 19.6807 3.78286 18.4869 2.51316Z" fill="#15B76D"/>
<path d="M16.1194 7.68408L14.2013 8.97718V8.15588C14.2013 7.29338 13.5013 6.59338 12.6388 6.59338H6.4688C5.6056 6.59338 4.9063 7.29338 4.9063 8.15588V12.8434C4.9063 13.7066 5.6056 14.4059 6.4688 14.4059H12.6388C13.5013 14.4059 14.2013 13.7066 14.2013 12.8434V12.0234L16.1194 13.3159C16.5344 13.5959 17.0938 13.2984 17.0938 12.7978V8.20218C17.0938 7.70158 16.5344 7.40408 16.1194 7.68408Z" fill="#FAFAFA"/>
</g>
<defs>
<clipPath id="clip0_1_1116">
<rect width="21" height="21" fill="white"/>
</clipPath>
</defs>
</svg>

<?xml version="1.0" encoding="UTF-8" standalone="no"?>
<svg
   width="20.60001"
   height="20.600018"
   viewBox="0 0 20.60001 20.600018"
   fill="none"
   version="1.1"
   id="svg2616"
   sodipodi:docname="video-call-squircle.svg"
   xmlns:inkscape="http://www.inkscape.org/namespaces/inkscape"
   xmlns:sodipodi="http://sodipodi.sourceforge.net/DTD/sodipodi-0.dtd"
   xmlns="http://www.w3.org/2000/svg"
   xmlns:svg="http://www.w3.org/2000/svg">
  <sodipodi:namedview
     id="namedview2618"
     pagecolor="#ffffff"
     bordercolor="#666666"
     borderopacity="1.0"
     inkscape:showpageshadow="2"
     inkscape:pageopacity="0.0"
     inkscape:pagecheckerboard="0"
     inkscape:deskcolor="#d1d1d1" />
  <g
     clip-path="url(#clip0_1_1116)"
     id="g2609"
     transform="translate(-0.19998122,-0.20007372)">
    <path
       d="M 18.4869,2.51316 C 17.2171,1.31956 15.4836,0.642361 13.5707,0.389061 11.7439,0.146961 10.5,0.206561 10.5,0.206561 c 0,0 -1.24411,-0.0596 -3.07101,0.1825 -1.9129,0.2533 -3.6462,0.930499 -4.9157,2.124099 -1.1939,1.2697 -1.870996,3.0031 -2.124396,4.916 -0.2421,1.8267 -0.1824,3.07084 -0.1824,3.07084 0,0 -0.0597,1.244 0.1824,3.0709 0.2534,1.9127 0.930496,3.6463 2.124296,4.9159 1.2696,1.1938 3.0029,1.8709 4.9158,2.1244 1.8269,0.242 3.07101,0.1824 3.07101,0.1824 0,0 1.2439,0.0596 3.0707,-0.1824 1.9129,-0.2535 3.6464,-0.9306 4.9159,-2.1244 1.1941,-1.2696 1.8711,-3.0032 2.1245,-4.9159 0.242,-1.8269 0.1824,-3.0709 0.1824,-3.0709 0,0 0.0596,-1.24414 -0.1824,-3.07084 -0.2534,-1.9129 -0.9304,-3.6463 -2.1242,-4.916 z"
       fill="#15b76d"
       id="path2605" />
    <path
       d="m 16.1194,7.68408 -1.9181,1.2931 v -0.8213 c 0,-0.8625 -0.7,-1.5625 -1.5625,-1.5625 h -6.17 c -0.8632,0 -1.5625,0.7 -1.5625,1.5625 v 4.68752 c 0,0.8632 0.6993,1.5625 1.5625,1.5625 h 6.17 c 0.8625,0 1.5625,-0.6993 1.5625,-1.5625 v -0.82 l 1.9181,1.2925 c 0.415,0.28 0.9744,-0.0175 0.9744,-0.5181 V 8.20218 c 0,-0.5006 -0.5594,-0.7981 -0.9744,-0.5181 z"
       fill="#fafafa"
       id="path2607" />
  </g>
  <defs
     id="defs2614">
    <clipPath
       id="clip0_1_1116">
      <rect
         width="21"
         height="21"
         fill="#ffffff"
         id="rect2611"
         x="0"
         y="0" />
    </clipPath>
  </defs>
</svg>
